packages/katcn/src/icons/svg/arrow8-solid.svg

<svg width="24" height="25" viewBox="0 0 24 25" fill="none" xmlns="http://www.w3.org/2000/svg">
<path d="M22.9006 9.06005L20.6043 2.58914C20.3048 1.90283 19.7058 1.41261 19.0069 1.31457C18.3081 1.21653 17.6092 1.51066 17.2098 2.09892L16.511 3.07936C14.3146 1.90283 11.619 1.51066 9.12304 2.09892C5.02972 2.98132 1.83494 6.31482 1.13608 10.3346C0.636891 13.374 1.53542 16.4134 3.43233 18.6684C5.42907 20.9234 8.32435 22.296 11.4193 22.296C15.7123 22.296 19.5061 19.7468 21.1035 15.8251C21.3032 15.4329 21.2033 15.0407 21.0037 14.7466C20.804 14.4525 20.4046 14.2564 20.0053 14.2564H17.3097C16.4111 14.2564 15.7123 14.5505 15.2131 15.1388C14.0151 16.6094 12.218 17.1977 10.4209 16.9036C8.62386 16.5114 7.02646 15.0407 6.62712 13.1779C6.3276 11.7072 6.62712 10.1385 7.62549 9.06005C8.52402 7.88352 10.0216 7.19721 11.5191 7.19721C12.1182 7.19721 12.817 7.29526 13.3162 7.58939L12.5175 8.66787C12.1182 9.25614 12.0183 10.0405 12.4177 10.6288C12.7172 11.217 13.416 11.6092 14.1149 11.6092L21.1035 11.5111C21.403 11.5111 21.7025 11.4131 22.002 11.3151C22.8007 10.9229 23.2001 9.94244 22.9006 9.06005Z" fill="black"/>
</svg>

<svg xmlns="http://www.w3.org/2000/svg" fill="none" viewBox="0 0 24 25"><path fill="#000" d="m22.9 9.06-2.296-6.47c-.3-.687-.898-1.177-1.597-1.275a1.85 1.85 0 0 0-1.797.784l-.699.98c-2.196-1.176-4.892-1.568-7.388-.98-4.093.882-7.288 4.216-7.987 8.236-.5 3.039.4 6.078 2.296 8.333 1.997 2.255 4.892 3.628 7.987 3.628 4.293 0 8.087-2.55 9.685-6.47.2-.393.1-.785-.1-1.08-.2-.293-.6-.49-.999-.49H17.31q-1.349 0-2.097.883c-1.198 1.47-2.995 2.059-4.792 1.765-1.797-.393-3.395-1.863-3.794-3.726-.3-1.47 0-3.04.998-4.118.899-1.176 2.397-1.863 3.894-1.863.6 0 1.298.098 1.797.392l-.799 1.079c-.399.588-.499 1.373-.1 1.96.3.589.999.981 1.698.981l6.989-.098c.299 0 .599-.098.898-.196.799-.392 1.198-1.373.899-2.255"/></svg>
